static/logo/unity.svg

<?xml version="1.0" encoding="UTF-8"?>
<svg width="22" height="24" fill="none" viewBox="0 0 22 24" xmlns="http://www.w3.org/2000/svg"><path d="m11.599 4.2939 3.8149 2.1929c0.1371 0.07699 0.1421 0.29057 0 0.36756l-4.533 2.6076c-0.1371 0.07947-0.2992 0.0745-0.4264 0l-4.5329-2.6076c-0.13963-0.07451-0.14212-0.29305 0-0.36756l3.8124-2.1929v-4.2939l-9.7342 5.5977v11.195l3.7326-2.1456v-4.3858c-0.0025-0.1565 0.18201-0.26822 0.31915-0.1838l4.533 2.6076c0.13713 0.0795 0.21443 0.2211 0.21443 0.3676v5.2127c0.00249 0.1565-0.18202 0.2682-0.31915 0.1838l-3.8149-2.1929-3.7326 2.1457 9.7342 5.5977 9.7341-5.5977-3.7326-2.1457-3.8148 2.1929c-0.1347 0.082-0.3242-0.0248-0.3192-0.1838v-5.2127c0-0.1565 0.0873-0.2955 0.2144-0.3676l4.533-2.6076c0.1346-0.08194 0.3241 0.0224 0.3191 0.1838v4.3858l3.7326 2.1456v-11.195l-9.7341-5.5977v4.2939z" fill="#333"/></svg>

<svg xmlns="http://www.w3.org/2000/svg" fill="none" viewBox="0 0 22 24" height="24" width="22">
<path fill="#333333" d="M11.5992 4.29387L15.4141 6.48675C15.5512 6.56374 15.5562 6.77732 15.4141 6.85431L10.8811 9.46192C10.744 9.54139 10.5819 9.53642 10.4547 9.46192L5.92177 6.85431C5.78214 6.7798 5.77965 6.56126 5.92177 6.48675L9.73415 4.29387V0L0 5.59768V16.793L3.73259 14.6474V10.2616C3.73009 10.1051 3.9146 9.99338 4.05174 10.0778L8.5847 12.6854C8.72183 12.7649 8.79913 12.9065 8.79913 13.053V18.2657C8.80162 18.4222 8.61711 18.5339 8.47998 18.4495L4.66511 16.2566L0.932523 18.4023L10.6667 24L20.4008 18.4023L16.6682 16.2566L12.8534 18.4495C12.7187 18.5315 12.5292 18.4247 12.5342 18.2657V13.053C12.5342 12.8965 12.6215 12.7575 12.7486 12.6854L17.2816 10.0778C17.4162 9.99586 17.6057 10.1002 17.6007 10.2616V14.6474L21.3333 16.793V5.59768L11.5992 0V4.29387Z"></path>
</svg>
